X:18264
T:Venez danser jeunes gens de bonne famille - rond de St-Vincent
C:Perroches: Midi Breton 
M:4/4
L:1/8
K:G
A|:AGAB c2A2|AGAB c2A2|AGAB c2A2:|\
|:Adc2 B2Ad|ddc2 B2A2|Adc2 B2Ad|ddc2 B2A2:|
